assets/icons/ic-download.svg

<svg width="20" height="20" viewBox="0 0 20 20" fill="none" xmlns="http://www.w3.org/2000/svg">
<path d="M10 13.125L10 4.125" stroke="#37352F" stroke-width="2" stroke-linecap="round" stroke-linejoin="round"/>
<path d="M5 16.493L15 16.493" stroke="#37352F" stroke-width="2" stroke-linecap="round" stroke-linejoin="round"/>
<path d="M10.6517 14.4257C10.2769 14.7477 9.7231 14.7477 9.34831 14.4257L5.54667 11.1594C4.84293 10.5547 5.27054 9.40089 6.19836 9.40089L13.8016 9.40089C14.7295 9.40089 15.1571 10.5547 14.4533 11.1594L10.6517 14.4257Z" fill="#37352F"/>
</svg>

<svg xmlns="http://www.w3.org/2000/svg" width="20" height="20" fill="none" xmlns:v="https://vecta.io/nano"><path d="M10 13.125v-9M5 16.493h10" stroke="#37352f" stroke-width="2" stroke-linecap="round" stroke-linejoin="round"/><path d="M10.652 14.426a1 1 0 0 1-1.303 0l-3.802-3.266c-.704-.605-.276-1.759.652-1.759h7.603c.928 0 1.355 1.154.652 1.759l-3.802 3.266z" fill="#37352f"/></svg>
